X:1
T:Title
%%score [ 1 2 3 4 ]
L:1/8
Q:1/4=120
M:4/4
K:B
V:1 treble nm="MusicXML Part"
V:2 treble nm="MusicXML Part"
V:3 treble-8 nm="MusicXML Part"
V:4 bass nm="MusicXML Part"
V:1
"^Gartenlieder (1846)""^Lockung   Op. 3, No. 1""^p""^Allegretto" d3 e | f2 d2 B3 c | B2 A2 A2 GF | %3
w: Hörst du|nicht die Bäu- me|rau- schen, drau- ßen *|
 F2!<(! B2 c2 d2!<)! | %4
w: durch die sti- lle|
"^Fanny Hensel (1805-1847)""^Text: J. v. Eichendorff (1788-1857)" e4"^p" d3 e | f2 d2 B3 c | %6
w: Rund? Lockt's dich|nicht, hin- ab- zu-|
[M:4/4] B2 A2!<(! A2 A2!<)! | d3 c B2 A2 | B4 d3 d | c2 B2 A2 BG | F2 ^E2 GE DC | F4 f4- | %12
w: lau- schen von dem|Sö- ller in den|Grund, lockt's dich|nicht, hin- ab- zu *|lau- schen von * dem *|Sö *|
 f2 F2 G3 A | (G4 F2) z2 |"^pp" FF=GF F2 F2 |!>(! B4 A2!>)! z2 | FF=GF =d2 d2 | (=d4 c2) z2 | %18
w: * ller in den|Grund, *|wo die vie- len Bä- che|ge- hen,|wun- der- bar im Mon- den-|schein, *|
!<(! =AABA A2 A2!<)! | f4 ^e2 c>c | f3 c c2 d2 | e4 z2 B>c | d3 c B2 A2 | B8- | B2 A2 e3 A | %25
w: und die sti- llen Bur- gen|se- hen in den|Fluß vom ho- hen|Stein, in den|Fluß vom ho- hen|Stein,|* vom ho- hen|
 !fermata!B4 d3 e | f2 d2 B3 c | B2 A2 A2 GF | F2 B2 c2 d2 | e4 d3 e | f2 d2 B3 c | B2 A2 A2 A2 | %32
w: Stein? Kennst du|noch die ir- ren|Lie- der aus der *|al- ten, schö- nen|Zeit? Sie er-|wa- chen al- lle|wie- der nachts in|
 d3 c B2 A2 | B4 d3 d | c2 B2 A2 BG | F2 ^E2 GE DC | F4 f4- | f2 F2 G3 A | (G4 F2) z2 | %39
w: Wal- des- ein- sam-|keit, sie er-|wa- chen al- le *|wie- der nachts * in *|Wal *|* des- ein- sam-|keit, *|
!<(! FF=GF F2 F2!<)! | B4 A2 z2 | FF=GF =d2 d2 | (=d4 c2) z2 | =AABA A2 A2 | f4 ^e2 c>c | %45
w: wenn die Bäu- me träu- mend|lau- schen,|und der Flie- der duf- tet|schwül *|und im Fluß die Ni- xen|rau- schen, komm her-|
 f2 z c c2 d2 | e4 z2 B>c | d3 c B2 A2 | (c4 B2) z2 | z2"^cresc." B>=c c4 | z2 c>=d d2"^f" ^d>e | %51
w: ab, hier ist's so|kühl, komm her-|ab, hier ist's so|kühl, *|komm her- ab,|komm her- ab, komm her-|
 e3"^p" c B2 Af | (f4 B2) z2 |] %53
w: ab, hier ist's so *|kühl. *|
V:2
"^p" F3 F | F2 F2 F3 ^E | F2 F2 F2 F2 | F2!<(! F2 F2 F2!<)! | F4"^p" F3 F | F2 F2 F3 ^E | %6
w: Hörst du|nicht die Bäu- me|rau- schen, drau- ßen|durch die sti- lle|Rund? Lockt's dich|nicht, hin- ab- zu-|
[M:4/4] F2 F2!<(! F2 F2!<)! | F3 F F2 F2 | G4 z4 | z8 | C8 | C2 E2 D2 =D2 | C4 ^E4 | (^E4 F2) z2 | %14
w: lau- schen von dem|Sö- ller in den|Grund,||nicht|von dem Sö- ller|in den|Grund, *|
"^pp" =DDDD C2 C2 |!>(! ^E4 F2!>)! z2 | =DDDD =G2 ^G2 | =A6 z2 |!<(! FFFF F2 F2!<)! | G4 G2 ^E>E | %20
w: wo die vie- len Bä- che|ge- hen,|wun- der- bar im Mon- den-|schein,|und die sti- llen Bur- gen|se- hen in den|
 F3 F F2 F2 | E4 z2 E>E | D3 D E2 E2 | D2 F2 =G3 F | (E8 | !fermata!F4) F3 F | F2 F2 F3 ^E | %27
w: Fluß vom ho- hen|Stein, in den|Fluß vom ho- hen|Stein, vom ho- hen|Stein?|* Kennst du|noch die ir- ren|
 F2 F2 F2 F2 | F2 F2 F2 F2 | F4 F3 F | F2 F2 F3 ^E | F2 F2 F2 F2 | F3 F F2 F2 | G4 z4 | z8 | %35
w: Lie- der aus der|al- ten, schö- nen|Zeit? Sie er-|wa- chen al- lle|wie- der nachts in|Wal- des- ein- sam-|keit,||
 C6 C2 | C2 E2 D2 =D2 | C4 ^E4 | (^E4 F2) z2 |!<(! =DDDD C2 C2!<)! | ^E4 F2 z2 | =DDDD =G2 ^G2 | %42
w: wie- der|nachts in Wal- des-|ein- sam-|keit, *|wenn die Bäu- me träu- mend|lau- schen,|und der Flie- der duf- tet|
 =A6 z2 | FFFF F2 F2 | G4 G2 ^E>E | F2 z F F2 F2 | E4 z2 E>E | D3 D E2 E2 | (E4 D2)"^cresc." F>=G | %49
w: schwül|und im Fluß die Ni- xen|rau- schen, komm her-|ab, hier ist's so|kühl, komm her-|ab, hier ist's so|kühl, * komm her-|
 =G6 G>^G | G6"^f" =A>G | G3"^p" =G F2 E2 | (E4 D2) z2 |] %53
w: ab, komm her-|ab, komm her-|ab, hier ist's so|* kühl.|
V:3
"^p" d3 d | c2 d2 d3 c | d2 c2 c2 BA | B2!<(! B2 A2 B2!<)! | c4"^p" d3 d | c2 d2 d3 c | %6
w: Hörst du|nicht die Bäu- me|rau- schen, drau- ßen *|durch die sti- lle|Rund? Lockt's dich|nicht, hin- ab- zu-|
[M:4/4] d2 c2!<(! c2 c2!<)! | A3 A d2 c2 | B4 z4 | z8 | G8 | F2 c2 B2 B2 | A4 B3 c | (B4 A2) z2 | %14
w: lau- schen von dem|Sö- ller in den|Grund,||nicht|von dem Sö- ller|in den *|Grund, *|
"^pp" BBBB =A2 A2 |!>(! B4 c2!>)! z2 | BBBB =d2 e2 | (f4 e2) z2 |!<(! =AAAA A2 A2!<)! | %19
w: wo die vie- len Bä- che|ge- hen,|wun- der- bar im Mon- den-|schein, *|und die sti- llen Bur- gen|
 =d4 c2 c>c | c3 c c2 c2 | B4 z2 B>B | B3 B c2 c2 | B2 d2 e3 d | (c8 | !fermata!d4) d3 d | %26
w: se- hen in den|Fluß vom ho- hen|Stein, in den|Fluß vom ho- hen|Stein, vom ho- hen|Stein?|* Kennst du|
 c2 d2 d3 c | d2 c2 c2 BA | B2 B2 A2 B2 | c4 d3 d | c2 d2 d3 c | d2 c2 c2 c2 | A3 A d2 c2 | B4 z4 | %34
w: noch die ir- ren|Lie- der aus der *|al- ten, schö- nen|Zeit? Sie er-|wa- chen al- lle|wie- der nachts in|Wal- des- ein- sam-|keit,|
 z8 | G6 ^E2 | F2 c2 B2 B2 | A4 B3 c | (B4 A2) z2 |!<(! BBBB =A2 A2!<)! | B4 c2 z2 | BBBB =d2 e2 | %42
w: |wie- der|nachts in Wal- des-|ein- sam *|keit, *|wenn die Bäu- me träu- mend|lau- schen,|und der Flie- der duf- tet|
 (f4 e2) z2 | =AAAA A2 A2 | =d4 c2 c>c | c2 z c c2 =c2 | B4 z2 B>B | B3 B c2 c2 | %48
w: schwül *|und im Fluß die Ni- xen|rau- schen, komm her-|ab, hier ist's so|kühl, komm her-|ab, hier ist's so|
 (A4 B2)"^cresc." d>e | e6 e>^e | ^e6"^f" f>=e | e3"^p" e d2 c2 | (A4 B2) z2 |] %53
w: kühl, * komm her-|ab, komm her-|ab, komm her-|ab, hier ist's so|* kühl.|
V:4
"^p" B,3 B, | A,2 A,2 G,3 G, | F,2 F,2 E,2 E,2 | D,2!<(! D,2 C,2 B,,2!<)! | A,,4"^p" B,3 B, | %5
w: Hörst du|nicht die Bäu- me|rau- schen, drau- ßen|durch die sti- lle|Rund? Lockt's dich|
 A,2 A,2 G,3 G, |[M:4/4] F,2 F,2!<(! E,2 E,2!<)! | D,3 D, D,2 D,2 | G,4 z4 | z8 | B,,4 A,,4 | %11
w: nicht, hin- ab- zu-|lau- schen von dem|Sö- ller in den|Grund,||nicht *|
 A,,2 A,,2 B,,2 B,,2 | C,4 C,4 | [F,,F,]4- [F,,F,]2 z2 |"^pp" B,B,B,B, =A,2 A,2 | %15
w: von dem Sö- ller|in den|Grund, *|wo die vie- len Bä- che|
!>(! =G,4 F,2!>)! z2 | B,B,B,B, _B,2 B,2 | =A,6 z2 |!<(! C,C,C,C, =C,2 C,2!<)! | B,,4 C,2 B,>B, | %20
w: ge- hen,|wun- der- bar im Mon- den-|schein,|und die sti- llen Bur- gen|se- hen in den|
 =A,3 A, A,2 A,2 | G,4 z2 =G,>G, | F,3 F, F,2 F,2 | B,8- | B,8- | !fermata!B,4 B,3 B, | %26
w: Fluß vom ho- hen|Stein, in den|Fluß vom ho- hen|Stein?||* Kennst du|
 A,2 A,2 G,3 G, | F,2 F,2 E,2 E,2 | D,2 D,2 C,2 B,,2 | A,,4 B,3 B, | A,2 A,2 G,3 G, | %31
w: noch die ir- ren|Lie- der aus der|al- ten, schö- nen|Zeit? Sie er-|wa- chen al- lle|
 F,2 F,2 E,2 E,2 | D,3 D, D,2 D,2 | G,4 z4 | z8 | B,,6 B,,2 | %36
w: wie- der nachts in|Wal- des- ein- sam-|keit,||wie- der|
 A,,2 A,,2"^Hensel: Lockung  -  Seite 2" B,,2 B,,2 | C,4 C,4 | F,,6 z2 | %39
w: nachts in Wal- des-|ein- sam-|keit,|
!<(! B,B,B,B, =A,2 A,2!<)! | =G,4 F,2 z2 | B,B,B,B, _B,2 B,2 | =A,6 z2 | C,C,C,C, =C,2 C,2 | %44
w: wenn die Bäu- me träu- mend|lau- schen,|und der Flie- der duf- tet|schwül|und im Fluß die Ni- xen|
 B,,4 C,2 B,>B, | =A,2 z A, A,2 A,2 | G,4 z2 =G,>G, | F,3 F, F,2 F,2 | B,,6"^cresc." B,>B, | %49
w: rau- schen, komm her-|ab, hier ist's so|kühl, komm her-|ab, hier ist's so|kühl, komm her-|
 B,6 B,>B, | B,6"^f" B,>E, | E,3"^p" E, F,2"^Hensel: Lockung  -  Seite 3" F,2 | B,,6 z2 |] %53
w: ab, komm her-|ab, komm her-|ab, hier ist's so|kühl.|

